!!!!SEGMENT: pl-sa--308-a-vii-68--003_riccieri-giovanni-antonio--concerti-tres-de-deo-flammae-amoris.krn
!!!cenid: 17xx:611
!!!COM: Riccieri, Giovanni Antonio
!!!COM-rismid: pe30007685
!!!CDT: 1679-1746
!!!CNT: Italian
!!!GTL: Concerti Tres de Deo
!!!OTL: Flammae amoris
!!!PDT:
!!!AGN:
!!!SMS-siglum: PL-SA
!!!SMS-shelfmark: 308/A VII 68
!!!SMS-shelfwork: 003 G
!!!SMS-variant:
!!!SMS-altvar:
!!!NIFC-rismid: 1001041298
!!!URL-scan: http://bc.bdsandomierz.pl/dlibra/publication/1613/edition/1581/content
!!!ONB-nifc:
!!!AIN: 1 empty 1 organ 2 violn
!!!key:
**kern	**fba	**kern	**kern	**kern	**text
*part4	*	*part3	*part2	*part1	*part1
*staff4	*	*staff3	*staff2	*staff1	*staff1
*Iorgan	*	*Ivioln	*Ivioln	*Iempty	*
*I"Organo	*	*I"Violino 2do	*I"Violino 1mo	*I"Baſso Solo.	*
*I'Org	*	*I'Vl 2	*I'Vl 1	*I'B	*
*clefF4	*	*clefG2	*clefG2	*clefF4	*
*k[f#c#]	*	*k[f#c#]	*k[f#c#]	*k[f#c#]	*
*D:	*	*D:	*D:	*D:	*
*M2/4	*	*M2/4	*M2/4	*M2/4	*
!	!	!LO:SIC:s=Flammae	!LO:TX:a:t=P:problem=krzyzyki f- c- f-&colon;global	!	!
!LO:TX:i:a:t=2do.	!	!LO:TX:i:b:t=Flamae amoris.	!LO:TX:b:i:t=Flammae amoris.	!	!
!LO:TX:i:b:t=Flammae amoris.	!	!LO:TX:i:a:t=2do	!LO:TX:i:a:t=2do	!LO:TX:i:a:t=2do.	!
8r	.	8r	8a/	8r	.
=1	=1	=1	=1	=1	=1
!	!	!	!	!LO:N:vis=00	!
8r	.	8r	4dd\	0r	.
8D/L	.	8f#/L	.	.	.
8C#/	.	8a/	4ee\	.	.
8BB/J	.	8a/J	.	.	.
=2	=2	=2	=2	=2	=2
!	!	!	!LO:TX:t=P:problem=mixed beam	!	!
4D/	.	4a/	8ff#\L	.	.
.	.	.	8dd\	.	.
4C#/	X 6	4e/	8aa\	.	.
.	.	.	8a/J	.	.
=3	=3	=3	=3	=3	=3
4BB/	.	4f#/	8dd\L	.	.
.	.	.	16ee\L	.	.
.	.	.	16ff#\JJ	.	.
4GG/	.	8b/L	16ee\LL	.	.
.	.	.	16b\	.	.
.	.	8g/J	16cc#\	.	.
.	.	.	16dd\JJ	.	.
=4	=4	=4	=4	=4	=4
4AA/	.	4e/	8cc#\L	.	.
.	.	.	8a\J	.	.
8A\L	.	4A/	8r	.	.
8G\J	.	.	8a/	.	.
=5	=5	=5	=5	=5	=5
!	!	!	!	!LO:N:vis=00	!
4F#\	.	4r	8dd\L	0r	.
.	.	.	16ff#\L	.	.
.	.	.	16ee\JJ	.	.
8r	.	8r	8dd\L	.	.
8D\	.	8a/	8dd\J	.	.
=6	=6	=6	=6	=6	=6
8G\L	.	8b\L	4dd\	.	.
16B\L	.	16dd\L	.	.	.
16A\JJ	.	16cc#\J	.	.	.
8G\L	.	8b\	8r	.	.
8G\J	.	8b\J	8b\	.	.
=7	=7	=7	=7	=7	=7
4G\	X 6	4b\	8ee\L	.	.
.	.	.	16gg\L	.	.
.	.	.	16ff#\JJ	.	.
8r	.	8r	8ee\L	.	.
8E\	.	8b\	8ee\J	.	.
=8	=8	=8	=8	=8	=8
8A\L	.	8cc#\L	4ee\	.	.
16c#\L	.	16ee\L	.	.	.
16B\JJ	.	16dd\J	.	.	.
8A\L	.	8cc#\	8r	.	.
8A\J	.	8cc#\J	16ee\LL	.	.
.	.	.	16ff#\JJ	.	.
=9	=9	=9	=9	=9	=9
!	!	!	!	!LO:N:vis=00	!
4A\	.	4cc#\	8gg\L	0r	.
.	.	.	16ff#\L	.	.
.	.	.	16ee\JJ	.	.
4D\	.	4dd\	8ff#\L	.	.
.	.	.	16ee\L	.	.
.	.	.	16dd\JJ	.	.
!	!	!LO:LB:g=original	!	!	!
=10	=10	=10	=10	=10	=10
8r	.	8r	4bb\	.	.
8G\L	.	4dd\	.	.	.
8F#\	.	.	8aa\L	.	.
8E\J	.	8cc#\	8gg\J	.	.
!LO:LB:g=original	!	!	!LO:LB:g=original	!	!
=11	=11	=11	=11	=11	=11
!LO:TX:t=P:problem=mixed beam	!	!LO:TX:t=P:problem=mixed beam	!	!	!
8D\L	.	8dd\L	8ff#\L	.	.
8FF#/	.	8a/	16ee\L	.	.
.	.	.	16dd\JJ	.	.
8GG/	.	8g/	8ee\L	.	.
8AA/J	.	8e/J	8cc#\J	.	.
=12	=12	=12	=12	=12	=12
8DD/L	.	8f#/L	4dd\	.	.
8D/J	.	8f#/	.	.	.
8C#/L	.	8e/	8r	.	.
8BB/J	.	8d/J	16e/LL	.	.
.	.	.	16f#/JJ	.	.
=13	=13	=13	=13	=13	=13
!	!	!	!	!LO:N:vis=0	!
4AA/	.	4c#/	8g/L	1r	.
.	.	.	16f#/L	.	.
.	.	.	16e/JJ	.	.
4D/	.	4d/	8f#/L	.	.
.	.	.	16e/L	.	.
.	.	.	16d/JJ	.	.
=14	=14	=14	=14	=14	=14
8r	.	8r	4b/	.	.
8G\L	.	4d/	.	.	.
8F#\	.	.	8a/L	.	.
8E\J	.	8c#/	8g/J	.	.
=15	=15	=15	=15	=15	=15
8D\L	.	8d/L	8f#/L	2r	.
8F#\	.	8a/	16e/L	.	.
.	.	.	16d/JJ	.	.
8G\	.	8g/	8e/L	.	.
8A\J	.	8e/J	8c#/J	.	.
=16	=16	=16	=16	=16	=16
4D\	.	4f#/	4d/	4A\	Flam-
!	!	!	!	!LO:TX:a:t=P:problem=pojedyncze chorągiewki skierowane są w lewo&colon;global	!
4G\	.	4r	4r	8B\	-mae
.	.	.	.	8B\	a-
=17	=17	=17	=17	=17	=17
!	!	!LO:N:vis=0	!LO:N:vis=0	!	!
4D\	.	1r	1r	16A\LL	-mo-
.	.	.	.	16G\	.
.	.	.	.	16F#\	.
.	.	.	.	16E\JJ	.
8r	.	.	.	8D/	-ris
8F#\	.	.	.	8D/	ad
=18	=18	=18	=18	=18	=18
8E\L	.	.	.	4G\	Je-
8D\J	.	.	.	.	.
8C#/L	X -	.	.	8G\	-su
8AA/J	X 7	.	.	8G\	Vo-
=19	=19	=19	=19	=19	=19
*2\right	*	*	*	*	*
2D\	.	2r	4r	8G\L	-la-
.	.	.	.	8F#\J	.
.	.	.	8r	4F#\	-te
.	.	.	8dd\	.	.
=20	=20	=20	=20	=20	=20
!	!	!	!	!LO:TX:a:t=1	!
8r	.	8r	4gg\	2r	.
8E/L	.	8b\	.	.	.
8C#/	.	8ee\L	8gg\L	.	.
8AA/J	.	8ee\J	8gg\J	.	.
=21	=21	=21	=21	=21	=21
!	!	!	!LO:TX:t=P:problem=mixed beam	!	!
2D\	.	8ee\L	8gg\L	4r	.
.	.	8dd\J	8ff#\	.	.
.	.	4dd\	8ff#\	8r	.
.	.	.	8f#/J	8A\	Vo-
!LO:LB:g=original	!	!LO:LB:g=original	!	!	!
=22	=22	=22	=22	=22	=22
!LO:N:vis=0	!	!	!	!	!
1r	.	4g/	8g/L	8B\L	-la-
.	.	.	16e/L	16G\L	.
.	.	.	16f#/JJ	16A\JJ	.
.	.	4r	8g/L	8B\L	.
.	.	.	8a/J	8cn\J	.
!	!	!	!	!LO:LB:g=original	!
=23	=23	=23	=23	=23	=23
.	.	4d/	8f#/L	8A\L	.
.	.	.	16d/L	16F#\L	.
.	.	.	16e/JJ	16G\JJ	.
!	!	!	!LO:LB:g=original	!	!
.	.	4r	8f#/L	8A\L	.
.	.	.	8g/J	8B\J	.
=24	=24	=24	=24	=24	=24
2r	.	4e/	8e/L	8G\L	.
.	.	.	16c#/L	16E\L	.
.	.	.	16d/JJ	16F#\JJ	.
.	.	4A/	8e/L	8G\L	.
.	.	.	8f#/J	8A\J	.
=25	=25	=25	=25	=25	=25
4D\	.	4d/	4d/	8F#\L	.
.	.	.	.	16A\L	.
.	.	.	.	16G\JJ	.
4r	.	4r	4r	8A\L	.
.	.	.	.	16d\L	.
.	.	.	.	16c#\JJ	.
=26	=26	=26	=26	=26	=26
*	*	*	*	*2\right	*
!	!	!LO:N:vis=0	!LO:N:vis=0	!	!
8D\L	.	1r	1r	2d\	.
16F#\L	.	.	.	.	.
16E\JJ	.	.	.	.	.
8F#\L	.	.	.	.	.
16B\L	.	.	.	.	.
16A\JJ	.	.	.	.	.
=27	=27	=27	=27	=27	=27
4B\	.	.	.	8r	.
.	.	.	.	8d\L	.
4E\	X 7	.	.	8c#\	.
.	.	.	.	8B\J	.
=28	=28	=28	=28	=28	=28
4A\	.	4r	4r	16c#\LL	.
.	.	.	.	16B\	.
.	.	.	.	16c#\	.
.	.	.	.	16A\JJ	.
4r	.	16cc#\LL	16cc#\LL	4r	.
.	.	16b\	16b\	.	.
.	.	16cc#\	16cc#\	.	.
.	.	16b\JJ	16a\JJ	.	.
=29	=29	=29	=29	=29	=29
!LO:N:vis=0	!	!	!	!	!
1r	.	4f#/	[>4dd\	16d\LL	.
.	.	.	.	16c#\	.
.	.	.	.	16d\	.
.	.	.	.	16B\JJ	.
.	.	16dd\LL	16dd\LL]	4r	.
.	.	16cc#\	16cc#\	.	.
.	.	16dd\	16dd\	.	.
.	.	16b\JJ	16b\JJ	.	.
=30	=30	=30	=30	=30	=30
.	.	4g/	[>4ee\	16e\LL	.
.	.	.	.	16d\	.
.	.	.	.	16e\	.
.	.	.	.	16c#\JJ	.
.	.	16ee\LL	16ee\LL]	4r	.
.	.	16dd\	16dd\	.	.
.	.	16ee\	16ee\	.	.
.	.	16cc#\JJ	16cc#\JJ	.	.
!	!	!	!	!LO:LB:g=original	!
=31	=31	=31	=31	=31	=31
4D\	.	4a/	4ff#\	8r	.
.	.	.	.	8F#\L	.
8r	.	4r	4r	8B\	.
16C#\LL	.	.	.	8A\J	.
16D\JJ	.	.	.	.	.
=32	=32	=32	=32	=32	=32
!	!	!LO:N:vis=0	!LO:N:vis=0	!	!
8E\L	X #	1r	1r	8G#X\L	.
8D\	.	.	.	8E\J	.
8C#\	X 6	.	.	[<4A\	-te
8D\J	.	.	.	.	.
=33	=33	=33	=33	=33	=33
4E\	.	.	.	8.A\]	.
.	.	.	.	16F#\	Vo-
4EE/	.	.	.	4G#Xt>\	-la-
=34	=34	=34	=34	=34	=34
8AA/L	.	2r	4r	4A\	-te
8BB/	.	.	.	.	.
8C#/	.	.	8r	4r	.
8BB/J	.	.	8e/	.	.
=35	=35	=35	=35	=35	=35
!	!	!	!	!LO:N:vis=00	!
4AA/	.	4r	8a/L	0r	.
.	.	.	16cc#/L	.	.
.	.	.	16b/JJ	.	.
!LO:LB:g=original	!	!	!	!	!
8r	.	8r	8a/L	.	.
8AA/	.	8e/	8a/J	.	.
=36	=36	=36	=36	=36	=36
8D\L	.	8f#/L	4a/	.	.
16F#\L	.	16a/L	.	.	.
16E\JJ	.	16g/JJ	.	.	.
!	!	!LO:LB:g=original	!	!	!
8D\L	.	8f#/L	8r	.	.
8D\J	.	8f#/J	8f#/	.	.
=37	=37	=37	=37	=37	=37
4D\	X 6	4f#/	8b\L	.	.
.	.	.	16dd\L	.	.
.	.	.	16cc#\JJ	.	.
!	!	!	!LO:LB:g=original	!	!
8r	.	8r	8b\L	.	.
8BB/	.	8f#/	8b\J	.	.
=38	=38	=38	=38	=38	=38
8E\L	.	8g#X/L	4b\	.	.
16G#X\L	.	16b/L	.	.	.
16F#\JJ	.	16a/JJ	.	.	.
8E\L	.	8g#/L	8r	.	.
8E\J	.	8g#/J	16b\LL	.	.
.	.	.	16cc#\JJ	.	.
=39	=39	=39	=39	=39	=39
!	!	!	!	!LO:N:vis=00	!
4E\	.	4g/	8dd\L	0r	.
.	.	.	16cc#\L	.	.
.	.	.	16b\JJ	.	.
4AA/	.	4a/	8cc#\L	.	.
.	.	.	16b\L	.	.
.	.	.	16a\JJ	.	.
=40	=40	=40	=40	=40	=40
8r	.	8r	4ff#\	.	.
8D/L	.	4a/	.	.	.
8C#/	.	.	8ee\L	.	.
8BB/J	.	8g#X/	8dd\J	.	.
=41	=41	=41	=41	=41	=41
8AA/L	.	8a/L	8cc#/L	.	.
8C#/J	.	8e/	16b/L	.	.
.	.	.	16a/JJ	.	.
8D\L	.	8c#/	8b/L	.	.
8E\J	.	8A/J	16a/L	.	.
.	.	.	16g#X/JJ	.	.
=42	=42	=42	=42	=42	=42
!LO:TX:a:t=P:problem=mixed beam	!	!	!	!	!
8AA/L	.	4c#/	4a/	.	.
8A\	.	.	.	.	.
8A\	.	4r	4r	.	.
8Gn\J	.	.	.	.	.
!LO:LB:g=original	!	!	!	!	!
=43	=43	=43	=43	=43	=43
!	!	!LO:N:vis=0	!LO:N:vis=0	!	!
4F#\	.	1r	1r	4A\	Flam-
4D#X\	X 6	.	.	16B\LL	-mae
.	.	.	.	16A\JJ	.
.	.	.	.	16G#X\LL	a-
.	.	.	.	16F#\JJ	.
=44	=44	=44	=44	=44	=44
8EE/L	.	.	.	8G#X\L	-mo-
!LO:TX:t=P:problem=mixed beam	!	!	!	!	!
8E\	.	.	.	16A\L	.
.	.	.	.	16F#\JJ	.
8E\	.	.	.	8G#X\	-ris
8Dn\J	.	.	.	16E\LL	ad
.	.	.	.	16F#\JJ	.
=45	=45	=45	=45	=45	=45
4C#/	.	2r	2r	4Gn\	Je-
4AA/	.	.	.	16A\LL	-sum
.	.	.	.	16G\JJ	.
.	.	.	.	16F#\LL	Vo-
.	.	.	.	16E\JJ	.
=46	=46	=46	=46	=46	=46
4D\	.	4r	4r	8F#\L	-la-
.	.	.	.	16B\L	.
.	.	.	.	16A\JJ	.
4r	.	4d/	4d/	16G\LL	.
.	.	.	.	16A\	.
.	.	.	.	16B\	.
.	.	.	.	16G\JJ	.
!	!	!	!	!LO:LB:g=original	!
=47	=47	=47	=47	=47	=47
4E\	.	4r	4r	8A\L	.
.	.	.	.	16c#\L	.
.	.	.	.	16B\JJ	.
4r	.	4e/	4e/	16A\LL	.
.	.	.	.	16B\	.
.	.	.	.	16c#\	.
.	.	.	.	16A\JJ	.
=48	=48	=48	=48	=48	=48
4F#\	.	4r	4r	8B\L	.
.	.	.	.	16d\L	.
.	.	.	.	16c#\JJ	.
4r	.	4f#/	4f#/	16B\LL	.
.	.	.	.	16c#\	.
.	.	.	.	16d\	.
.	.	.	.	16B\JJ	.
=49	=49	=49	=49	=49	=49
4G\	.	4r	4r	8c#\	.
.	.	.	.	8A\	-te
4r	.	4g/	4g/	4r	.
!	!	!LO:LB:g=original	!	!	!
=50	=50	=50	=50	=50	=50
!LO:TX:a:t=P:problem=mixed beam	!	!	!	!	!
8A\L	.	8a/L	8a/L	4A\	Flam-
8AA/	.	8A/J	8A/J	.	.
8A\	.	8a/L	8a/L	8B\	-mae
8G\J	.	16b/L	16b/L	8B\	a-
.	.	16cc#/JJ	16cc#/JJ	.	.
=51	=51	=51	=51	=51	=51
4F#\	X 6	4dd\	4dd\	16A\LL	-mo-
.	.	.	.	16G\	.
.	.	.	.	16F#\	.
.	.	.	.	16E\JJ	.
4G\	.	4r	4r	8D/	-ris
.	.	.	.	8d\	ad
!	!	!	!LO:LB:g=original	!	!
=52	=52	=52	=52	=52	=52
!	!	!LO:N:vis=00	!LO:TX:a:t=P:problem=wymazana pauza 00r na 0r	!	!
!	!	!	!LO:N:vis=0	!	!
4D\	.	0r	1r	4A\	Je-
4r	.	.	.	8B\	-ſum
.	.	.	.	8B\	Vo-
=53	=53	=53	=53	=53	=53
4F#\	.	.	.	8A\L	-la-
.	.	.	.	16D\L	.
.	.	.	.	16C#\JJ	.
4G\	.	.	.	8D\L	.
.	.	.	.	16G\L	.
.	.	.	.	16F#\JJ	.
!LO:LB:g=original	!	!	!	!LO:LB:g=original	!
=54	=54	=54	=54	=54	=54
!	!	!	!LO:TX:a:t=P:problem=brakujące 2 takty pauzy [por. t. 52-55 vl2]	!	!
4F#\	X 6|	.	2ryy	2G\	.
4r	.	.	.	.	.
=55	=55	=55	=55	=55	=55
8AA/L	.	.	2ryy	8r	.
16C#/L	.	.	.	8G\L	.
16BB/JJ	.	.	.	.	.
8C#/L	.	.	.	8F#\	.
16E/L	.	.	.	8E\J	.
16D/JJ	.	.	.	.	.
=56	=56	=56	=56	=56	=56
4E\	.	4r	4r	16F#\LL	.
.	.	.	.	16E\	.
.	.	.	.	16F#\	.
.	.	.	.	16D\JJ	.
4AA/	.	16f#/LL	16f#/LL	4r	.
.	.	16e/	16e/	.	.
.	.	16f#/	16f#/	.	.
.	.	16d/JJ	16d/JJ	.	.
=57	=57	=57	=57	=57	=57
4D\	.	4B/	[<4g/	16G\LL	.
.	.	.	.	16F#\	.
.	.	.	.	16G\	.
.	.	.	.	16E\JJ	.
4r	.	16g/LL	16g/LL]	4r	.
.	.	16f#/	16f#/	.	.
.	.	16g/	16g/	.	.
.	.	16e/JJ	16e/JJ	.	.
=58	=58	=58	=58	=58	=58
!LO:N:vis=0	!	!	!	!	!
1r	.	4c#/	[<4a/	16A\LL	.
.	.	.	.	16G\	.
.	.	.	.	16A\	.
.	.	.	.	16F#\JJ	.
.	.	16a/LL	16a/LL]	4r	.
.	.	16g/	16g/	.	.
.	.	16a/	16a/	.	.
.	.	16f#/JJ	16f#/JJ	.	.
=59	=59	=59	=59	=59	=59
.	.	4d/	4b/	8r	.
.	.	.	.	8B\L	.
.	.	4r	4r	8e\	.
.	.	.	.	8d\J	.
=60	=60	=60	=60	=60	=60
4G\	.	4r	8r	8c#\L	.
.	.	.	8e/L	8A\J	-te
8r	.	8r	8a/	[<4d\	.
16F#\LL	.	8B/	8g/J	.	.
16G\JJ	.	.	.	.	.
=61	=61	=61	=61	=61	=61
!LO:TX:a:t=P:problem=nadmiarowy/ niepasujący takt	!	!LO:TX:a:t=P:problem=nadmiarowy/ niepasujący takt	!LO:TX:a:t=P:problem=nadmiarowy/ niepasujący takt	!LO:TX:a:t=P:problem=nadmiarowy/ niepasujący takt	!
8A\L	.	2ryy	2ryy	2ryy	.
8G\	.	.	.	.	.
8F#\	.	.	.	.	.
8G\J	.	.	.	.	.
=62	=62	=62	=62	=62	=62
4A\	.	4A/	4f#/	8.d\]	.
.	.	.	.	16B\	Vo-
4AA/	.	4A/	4e/	8.c#\L	-la-
.	.	.	.	16d\Jk	.
=63	=63	=63	=63	=63	=63
8D\L	.	4A/	4d/	4d\	-te
8E\	.	.	.	.	.
8F#\	.	4r	4r	8r	.
8D\J	.	.	.	8A\	ad
!	!	!	!	!LO:LB:g=original	!
=64	=64	=64	=64	=64	=64
!	!	!LO:N:vis=0	!LO:N:vis=0	!	!
!	!	!LO:TX:a:t=3	!	!	!
8G\L	.	1r	1r	8B\	Je-
8A\	.	.	.	(>16A\LL	.
.	.	.	.	16G\JJ)	.
8B\	.	.	.	8F#\	-sum
8G\J	.	.	.	8G\	Vo-
!LO:LB:g=original	!	!	!	!	!
=65	=65	=65	=65	=65	=65
4A\	.	.	.	4F#\	-la-
4AA/	.	.	.	4E\	.
=66	=66	=66	=66	=66	=66
4D\	.	2r	4r	2D;>\	-te
4r	.	.	8r	.	.
.	.	.	8a/	.	.
!	!	!LO:LB:g=original	!	!	!
=67	=67	=67	=67	=67	=67
!	!	!	!	!LO:N:vis=00	!
8r	.	8r	4dd\|	0r	.
8D/L	.	8f#/L	.	.	.
8C#/	.	8a/	4ee\|	.	.
8BB/J	.	8a/J	.	.	.
=68	=68	=68	=68	=68	=68
!	!	!	!LO:TX:t=P:problem=mixed beam	!	!
4D/	.	4a/	8ff#\L	.	.
.	.	.	8dd\	.	.
4C#/	X 6	4e/	8aa\	.	.
.	.	.	8a/J	.	.
=69	=69	=69	=69	=69	=69
4BB/	.	4f#/	8dd\L	.	.
.	.	.	16ee\L	.	.
.	.	.	16ff#\JJ	.	.
4GG/	.	8b/L	16ee\LL	.	.
.	.	.	16b\	.	.
.	.	8g/J	16cc#\	.	.
.	.	.	16dd\JJ	.	.
!	!	!	!LO:LB:g=original	!	!
=70	=70	=70	=70	=70	=70
4AA/	.	4e/	8cc#\L	.	.
.	.	.	8a\J	.	.
8A\L	.	4A/	8r	.	.
8G\J	.	.	8a/	.	.
=71	=71	=71	=71	=71	=71
!	!	!	!	!LO:N:vis=00	!
4F#\	X 6	4r	8dd\L	0r	.
.	.	.	16ff#\L	.	.
.	.	.	16ee\JJ	.	.
8r	.	8r	8dd\L	.	.
8D\	.	8a/	8dd\J	.	.
=72	=72	=72	=72	=72	=72
8G\L	.	8b\L	4dd\	.	.
16B\L	.	16dd\L	.	.	.
16A\JJ	.	16cc#\JJ	.	.	.
8G\L	.	8b\L	8r	.	.
8G\J	.	8b\J	8b\	.	.
=73	=73	=73	=73	=73	=73
4G\	X 6	4b\	8ee\L	.	.
.	.	.	16gg\L	.	.
.	.	.	16ff#\JJ	.	.
8r	.	8r	8ee\L	.	.
8E\	.	8b\	8ee\J	.	.
=74	=74	=74	=74	=74	=74
8A\L	.	8cc#\L	4ee\	.	.
16c#\L	.	16dd\L	.	.	.
16B\JJ	.	16cc#\J	.	.	.
8A\L	.	8cc#\	8r	.	.
8A\J	.	8cc#\J	16ee\LL	.	.
.	.	.	16ff#\JJ	.	.
=75	=75	=75	=75	=75	=75
!	!	!	!	!LO:N:vis=00	!
4A\	.	4cc#\	8gg\L	0r	.
.	.	.	16ff#\L	.	.
.	.	.	16ee\JJ	.	.
4D\	.	4dd\	8ff#\L	.	.
.	.	.	16ee\L	.	.
.	.	.	16dd\JJ	.	.
=76	=76	=76	=76	=76	=76
8r	.	8r	4bb\	.	.
8G\L	.	4dd\	.	.	.
8F#\	.	.	8aa\L	.	.
8E\J	.	8cc#\	8gg\J	.	.
!LO:LB:g=original	!	!	!	!	!
=77	=77	=77	=77	=77	=77
!	!	!LO:TX:a:t=P:problem=mixed beam	!	!	!
8D\L	.	8cc#\L	8ff#\L	.	.
8F#\	.	8a/	16ee\L	.	.
.	.	.	16dd\JJ	.	.
8G\	.	8g/	8ee\L	.	.
8A\J	.	8e/J	8cc#\J	.	.
!	!	!LO:LB:g=original	!	!	!
=78	=78	=78	=78	=78	=78
8D/L	.	8f#/L	4dd\	.	.
8D/	.	8f#/	.	.	.
8C#/	.	8e/	8r	.	.
8BB/J	.	8d/J	16e/LL	.	.
.	.	.	16f#/JJ	.	.
=79	=79	=79	=79	=79	=79
!	!	!	!	!LO:N:vis=00	!
4AA/	X 7	4c#/	8g/L	0r	.
.	.	.	16f#/L	.	.
.	.	.	16e/JJ	.	.
4D/	.	4d/	8f#/L	.	.
.	.	.	16e/L	.	.
.	.	.	16d/JJ	.	.
=80	=80	=80	=80	=80	=80
8r	.	8r	4b/	.	.
8G\L	.	4d/	.	.	.
8F#\	.	.	8a/L	.	.
8E\J	.	8B/	8g/J	.	.
!	!	!	!LO:LB:g=original	!	!
=81	=81	=81	=81	=81	=81
8D\L	.	8d/L	8f#/L	.	.
8F#\	.	8a/	16e/L	.	.
.	.	.	16d/JJ	.	.
8G\	.	8g/	8e/L	.	.
8A\J	.	8e/J	8c#/J	.	.
=82	=82	=82	=82	=82	=82
4.D;;>/	.	4f#/	4d;>/	.	.
.	.	4r	4r	.	.
8C#/	.	.	.	.	.
!	!	!	!LO:TX:a:t=P:problem=podwójna kreska taktowa	!	!
=83	=83	=83	=83||	=83	=83
!	!	!LO:N:vis=00	!LO:N:vis=0	!	!
4BB/	.	0r	1r	4F#\	abs
4GG/	.	.	.	4B\	gae-
=84	=84	=84	=84	=84	=84
!LO:TX:a:t=P:problem=mixed beam	!	!	!	!	!
8FF#/L	.	.	.	4A#X\	-te
8F#/	.	.	.	.	.
8E/	X 6	.	.	8r	.
8D/J	.	.	.	8B\	non
=85	=85	=85	=85	=85	=85
8C#/L	X 3	.	2r	4E\	eſt
8BB/	.	.	.	.	.
8AA#X/	.	.	.	4E\	so-
8FF#/J	.	.	.	.	.
=86	=86	=86	=86	=86	=86
2BB/	X 4	.	4r	8E\L	-la-
.	.	.	.	8D\J	.
.	.	.	8r	8D\	-men
.	.	.	8b\	8r	.
=87	=87	=87	=87	=87	=87
!	!	!	!	!LO:TX:a:t=2	!
!	!	!	!	!LO:N:vis=0	!
8r	.	8r	4ee\	1r	.
8C#/L	.	8g#X/L	.	.	.
8AA#X/	.	8cc#/	8ee\L	.	.
8FF#/J	.	8cc#/J	8ee\J	.	.
=88	=88	=88	=88	=88	=88
4BB/	.	8cc#/L	(>8ee\L	.	.
.	.	8b/J	8dd\J	.	.
8B\L	.	4b/	4dd\)	.	.
8A\J	.	.	.	.	.
!LO:LB:g=original	!	!	!	!	!
=89	=89	=89	=89	=89	=89
!	!	!LO:N:vis=0	!LO:N:vis=0	!	!
8G\L	.	1r	1r	8B\	Me-
8F#\	.	.	.	8A\	-ae
8B\	.	.	.	8G\	ci-
8A\J	.	.	.	8F#\	-to
=90	=90	=90	=90	=90	=90
2G\	X 7	.	.	4F#\	fert
.	X 6	.	.	8.E\L	Le-
.	.	.	.	16F#\Jk	.
!	!	!	!	!LO:LB:g=original	!
=91	=91	=91	=91	=91	=91
!LO:TX:a:t=P::problem=2 takty zapisane repetycją&colon; takty 91-92	!	!	!	!	!
4F#\	.	8r	8r	[<2F#\	-ua-
.	.	8dd\	8ff#\L	.	.
!LO:TX:i:a:t=bis	!	!	!	!	!
4r	.	16cc#\LL	8ee\	.	.
.	.	16f#\	.	.	.
.	.	16b\	8dd\J	.	.
.	.	16f#\JJ	.	.	.
=92	=92	=92	=92	=92	=92
4F#\	.	8a#X\L	16cc#\LL	2F#\_<	.
.	.	.	16f#\	.	.
.	.	8b\	16dd\	.	.
.	.	.	16f#\JJ	.	.
!	!	!	!LO:TX:t=P:problem=mixed beam	!	!
4r	.	8cc#\	16ee\LL	.	.
.	.	.	16f#/	.	.
.	.	8b\J	16dd\	.	.
.	.	.	16f#/JJ	.	.
=93	=93	=93	=93	=93	=93
!	!	!	!LO:TX:t=P:problem=mixed beam	!	!
4F#\	.	8a#X\L	16cc#\LL	2F#\]	.
.	.	.	16f#/	.	.
.	.	8ff#\	16dd\	.	.
.	.	.	16f#/JJ	.	.
4r	.	8ee\	16cc#\LL	.	.
.	.	.	16f#\	.	.
.	.	8dd\J	16b\	.	.
.	.	.	16f#\JJ	.	.
!	!	!LO:LB:g=original	!	!	!
=94	=94	=94	=94	=94	=94
4F#\	.	16cc#\LL	8a#X\L	2F#\	-men
.	.	16f#\	.	.	.
.	.	16dd\	8b\	.	.
.	.	16f#\JJ	.	.	.
4r	.	16ee\LL	8cc#\	.	.
.	.	16f#\	.	.	.
.	.	16dd\	8b\J	.	.
.	.	16f#\JJ	.	.	.
!	!	!	!LO:LB:g=original	!	!
=95	=95	=95	=95	=95	=95
!LO:TX:a:t=P:problem=mixed beam	!	!	!	!	!
8F#\L	X #	8cc#\L	8a#X/L	4r	.
8FF#/	.	8f#\J	8f#/J	.	.
8F#\	.	4r	4r	8F#\	abs
8E\J	.	.	.	8F#\	gae-
=96	=96	=96	=96	=96	=96
4D/	X 6	2r	2r	8.B\	-te
.	.	.	.	16c-X\	non
4BB/	.	.	.	8B\	eſt
.	.	.	.	8A\	so-
=97	=97	=97	=97	=97	=97
4E\	.	4r	4r	(>16A\LL	-la-
.	.	.	.	16G\J)	.
.	.	.	.	8F#\J	.
8E\	.	8r	8r	4G\	-men
8r	.	8g/	8b/	.	.
=98	=98	=98	=98	=98	=98
4r	.	8f#/L	8a/L	4r	.
.	.	16g/L	16b/L	.	.
.	.	16d#X/JJ	16f#/JJ	.	.
4E\	.	4e/	8g/	8G\	Me-
.	.	.	8r	8E\	-ae
=99	=99	=99	=99	=99	=99
!	!	!LO:N:vis=0	!	!	!
4E\	X 6	1r	2r	8cn\	Ci-
.	.	.	.	8c\	-to
4F#\	X 4	.	.	8c\	fert
.	.	.	.	8c\	le-
!	!	!	!	!LO:LB:g=original	!
=100	=100	=100	=100	=100	=100
4G\	X 4	.	4r	(>16c#\LL	-ua-
.	X 3	.	.	16B\J)	.
.	.	.	.	8A\J	.
8r	.	.	8r	8B\	-men
8E\	.	.	8gg\	8cn\	Lan-
=101	=101	=101	=101	=101	=101
4F#\	.	4r	8ff#\L	8A\L	-guen-
.	.	.	16dd#X\L	16F#\L	.
.	.	.	16ee\JJ	16G\JJ	.
8r	.	8r	[<4ff#\	[<4A\	.
8D\	.	8a/	.	.	.
=102	=102	=102	=102	=102	=102
4E\	.	4b\	8ff#\L]	8A\L]	.
.	.	.	16gg\L	16B\L	.
.	.	.	16ff#\JJ	16A\JJ	.
8r	.	8r	8ee\L	8G\	-ti
8AA/	.	8ccn\	8ee\J	8A\	.
=103	=103	=103	=103	=103	=103
2BB/	.	4b\	4ee\	(>4G\	a-
.	.	4b\	4dd#X\	8.F#\)	.
.	.	.	.	16G\	-ni-
=104	=104	=104	=104	=104	=104
4E\	.	4g/	4ee\	8E\L	-mae-
.	.	.	.	16E\L	.
.	.	.	.	16F#\JJ	.
4r	.	4r	4r	8G\L	.
.	.	.	.	8E\J	.
=105	=105	=105	=105	=105	=105
4E\	.	2r	8r	8G\L	.
.	.	.	16e/LL	16G\L	.
.	.	.	16f#/JJ	16A\JJ	.
4r	.	.	8g/L	8B\L	.
!	!	!	!	!LO:SIC:t=lub 8G	!
.	.	.	8f#/J	8A\J	.
!LO:LB:g=original	!	!LO:LB:g=original	!	!	!
=106	=106	=106	=106	=106	=106
4E\	.	4B/	8g/L	[<2B\	.
.	.	.	16a/L	.	.
.	.	.	16g/JJ	.	.
!	!	!	!LO:LB:g=original	!	!
4D\	X 6	4B/	8f#/L	.	.
.	.	.	16g#X/L	.	.
.	.	.	16f#/JJ	.	.
!	!	!	!	!LO:LB:g=original	!
=107	=107	=107	=107	=107	=107
4C#/	X 7	8G#X/L	8e#X/L	2B\]	.
.	.	16e#X/L	16g#X/L	.	.
.	.	16d#X/JJ	16f#/JJ	.	.
4r	.	8e#/L	8g#X/L	.	.
.	.	16g#X/L	16b/L	.	.
.	.	16f#/JJ	16a/JJ	.	.
=108	=108	=108	=108	=108	=108
4C#/	.	4g#X/	4b/	8r	.
.	.	.	.	8B\	-Lan-
8r	.	8r	8r	8A\	-guen-
8C#/	.	8cc#\	8ee#X\	8G#X\	-ti
=109	=109	=109	=109	=109	=109
4F#\	.	4cc#\	4ff#\	8A\L	a-
.	.	.	.	8F#\	.
8r	.	8r	8r	8G#X\	.
8BB/	X 7	8d/	8ff#\	8A\J	.
=110	=110	=110	=110	=110	=110
2C#/	X 4	4c#/	4a/	4.E#X\	.
.	X 3#r	4c#/	4g#X/	.	.
.	.	.	.	8F#\	-ni-
=111	=111	=111	=111	=111	=111
2F#\	.	2c#/	2f#/	2F#\	-mae.
!LO:TX:a:t=P:problem=Napis "Da Capo" za podwójną kreską taktową na pięciolinii	!	!LO:TX:a:t=P:problem=Napis "Da Capo" za podwójną kreską taktową na pięciolinii	!LO:TX:a:t=P:problem=Napis "Da Capo" za podwójną kreską taktową na pięciolinii	!LO:TX:a:t=P:problem=Napis "Da Capo" za podwójną kreską taktową na pięciolinii	!
!LO:TX:a:i:t=Da Capo	!	!LO:TX:i:a:t=Da Capo	!LO:TX:i:a:t=Da Capo	!LO:TX:i:a:t=Da Capo	!
==	==	==	==	==	==
*-	*-	*-	*-	*-	*-
!!!system-decoration: s1[(s2,s3)][(s4)]
!!!RDF**kern: > = above
!!!RDF**kern: < = below
!!!EED: Mateusz Mrugas
!!!EST: 2020-11-11
!!!ENC: Marta Chmielewska
!!!END: 2020-06-05
!!!RDF**kern: | = vertical stroke
